!!!OTL: ACH MANN DU SOLLST NACH HAUSE KOMMN
!!!ARE: Europa, Mitteleuropa, Deutschland
!!!SCT: E0910A
!!!YEM: Copyright 1995, estate of Helmut Schaffrath.
**kern
*ICvox
*Ivox
*M2/4
*k[f#]
*G:
{8d
=1
8.g
16a
8b
8g
=2
8e
8c
4c}
=3
{8cc
8cc
8a
8f#
=4
4g
8r}
{8d
=5
8.g
16a
8b
8g
=6
8e
8c
4c}
=7
{8cc
8cc
8a
8f#
=8
4g
4r}
=9
{8.b
16dd
8dd
8cc
=10
8cc
8b
4b}
=11
{8dd
8dd
16ee
16dd
16cc
16b
=12
8a
8d
8d
16r}
{16a
=13
8b
8b
8a
8a
=14
8.g
16b
8dd}
{8cc
=15
8b
8b
8a
8a
=16
4g
8r}
==
!!!AGN: Ehestands - Lied
!!!ONB: ESAC (Essen Associative Code) Database: ERK2
!!!AMT: simple duple
!!!AIN: vox
!!!EED: Helmut Schaffrath
!!!EEV: 1.0
*-
